client/public/assets/icons/action/delete.svg

<?xml version="1.0"?><svg xmlns="http://www.w3.org/2000/svg" width="52" height="52" viewBox="0 0 52 52"><g fill="#fff"><path d="m45.5 10h-12.5v-4c0-2.2-1.8-4-4-4h-6c-2.2 0-4 1.8-4 4v4h-12.5c-0.8 0-1.5 0.7-1.5 1.5v3c0 0.8 0.7 1.5 1.5 1.5h39c0.8 0 1.5-0.7 1.5-1.5v-3c0-0.8-0.7-1.5-1.5-1.5z m-22.5-3c0-0.6 0.4-1 1-1h4c0.6 0 1 0.4 1 1v3h-6v-3z m18.5 13h-31c-0.8 0-1.5 0.7-1.5 1.5v23.5c0 2.8 2.2 5 5 5h24c2.8 0 5-2.2 5-5v-23.5c0-0.8-0.7-1.5-1.5-1.5z m-18.5 22c0 0.6-0.4 1-1 1h-2c-0.6 0-1-0.4-1-1v-14c0-0.6 0.4-1 1-1h2c0.6 0 1 0.4 1 1v14z m10 0c0 0.6-0.4 1-1 1h-2c-0.6 0-1-0.4-1-1v-14c0-0.6 0.4-1 1-1h2c0.6 0 1 0.4 1 1v14z"></path></g></svg>

<?xml version="1.0" encoding="utf-8"?>
<!-- Generator: Adobe Illustrator 18.1.1, SVG Export Plug-In . SVG Version: 6.00 Build 0)  -->
<svg version="1.1" id="Layer_1" xmlns="http://www.w3.org/2000/svg" xmlns:xlink="http://www.w3.org/1999/xlink" x="0px" y="0px"
	 width="52px" height="52px" viewBox="0 0 52 52" enable-background="new 0 0 52 52" xml:space="preserve">
<g>
	<path fill="#FFFFFF" d="M45.5,10H33V6c0-2.2-1.8-4-4-4h-6c-2.2,0-4,1.8-4,4v4H6.5C5.7,10,5,10.7,5,11.5v3C5,15.3,5.7,16,6.5,16h39
		c0.8,0,1.5-0.7,1.5-1.5v-3C47,10.7,46.3,10,45.5,10z M23,7c0-0.6,0.4-1,1-1h4c0.6,0,1,0.4,1,1v3h-6V7z"/>
	<path fill="#FFFFFF" d="M41.5,20h-31C9.7,20,9,20.7,9,21.5V45c0,2.8,2.2,5,5,5h24c2.8,0,5-2.2,5-5V21.5C43,20.7,42.3,20,41.5,20z
		 M23,42c0,0.6-0.4,1-1,1h-2c-0.6,0-1-0.4-1-1V28c0-0.6,0.4-1,1-1h2c0.6,0,1,0.4,1,1V42z M33,42c0,0.6-0.4,1-1,1h-2
		c-0.6,0-1-0.4-1-1V28c0-0.6,0.4-1,1-1h2c0.6,0,1,0.4,1,1V42z"/>
</g>
</svg>
